!!!!SEGMENT: Mlu2006-In_illo_tempore.krn
!!!id: Mlu2006
!!!AGN: Motet
!!!voices: 4
!!!COM: Pierre Moulu
!!!OTL: In illo tempore
**kern	**kern	**kern	**kern
*part4	*part3	*part2	*part1
*staff4	*staff3	*staff2	*staff1
*I"Bassus	*I"Tenor	*I"Altus	*I"Superius
*I'B	*I'T	*I'A	*I'S
*clefF4	*clefGv2	*clefGv2	*clefG2
*k[]	*k[]	*k[]	*k[]
*C:	*C:	*C:	*C:
*M2/1	*M2/1	*M2/1	*M2/1
*met(C|)	*met(C|)	*met(C|)	*met(C|)
!!section: Prima pars: In illo tempore
!!!OMD: Prima pars: In illo tempore
0r	0r	0e	0r
=1	=1	=1	=1
0r	0r	1e	0r
.	.	1d	.
=2	=2	=2	=2
0r	0r	1.f	0a
.	.	4e	.
.	.	4d	.
=3	=3	=3	=3
0r	0r	2.c	1a
.	.	4d	.
.	.	2e	1g
.	.	2e	.
=4	=4	=4	=4
0r	0r	1A	1.cc
.	.	1r	.
.	.	.	4b
.	.	.	4a
=5	=5	=5	=5
0r	0r	1e	2.g
.	.	.	4a
.	.	2e	2b
.	.	2d	2b
=6	=6	=6	=6
2r	0r	2.g	1e
2E	.	.	.
.	.	4f	.
2E	.	4e	1r
.	.	4d	.
2D	.	[2f	.
=7	=7	=7	=7
2.G	1r	4f]	0r
.	.	4e	.
.	.	1e	.
4E	.	.	.
1F	2r	.	.
.	2A	2d	.
=8	=8	=8	=8
1E	2.A	0e	1r
.	4G	.	.
2r	2.c	.	2r
2C	.	.	2a
.	4A	.	.
=9	=9	=9	=9
2D	1B	1r	2a
2E	.	.	2g
2F	1A	2r	2.cc
2C	.	2c	.
.	.	.	4a
=10	=10	=10	=10
1G	2r	2d	1b
.	2G	2e	.
2.F	2.A	2f	1a
.	.	2c	.
8EL	4B	.	.
8DJ	.	.	.
=11	=11	=11	=11
2C	2c	1g	2r
2E	2G	.	2g
2.D	1d	2.f	2a
.	.	.	2b
8CL	.	4d	.
8BBJ	.	.	.
=12	=12	=12	=12
1AA	2.c	2e	2cc
.	.	2f	2a
.	8BL	.	.
.	8AJ	.	.
1r	2G	1g	1dd
.	2B	.	.
=13	=13	=13	=13
0r	2.A	1r	2.cc
.	8GL	.	8bL
.	8FJ	.	8aJ
.	2E	2r	2g
.	2G	[2e	2b
=14	=14	=14	=14
0r	2.F	4e]	1a
.	.	8dL	.
.	.	8cJ	.
.	.	2d	.
.	4E	.	.
.	2C	2e	[1g
.	[2c	2c	.
=15	=15	=15	=15
1r	4c]	2.d	1g]
.	8BL	.	.
.	8AJ	.	.
.	2B	.	.
.	.	8cL	.
.	.	8BJ	.
2r	2c	2A	2r
[2A	2A	2e	[2cc
=16	=16	=16	=16
2A]	2.d	2f	4cc]
.	.	.	8bL
.	.	.	8aJ
2G	.	2g	2b
.	4c	.	.
1A	2A	[1e	2cc
.	2c	.	[2a
=17	=17	=17	=17
1E	1B	1e]	4a]
.	.	.	8gL
.	.	.	8fJ
.	.	.	2g
2r	2A	2r	2a
[2A	[2c	4c	4g
.	.	4d	4f
=18	=18	=18	=18
2A]	4c]	4e	0e
.	8BL	4f	.
.	8AJ	.	.
2G	2B	2g	.
1A	2.c	2e	.
.	.	2a	.
.	4A	.	.
=19	=19	=19	=19
2E	2B	2g	2r
1A	2c	2e	2.cc
.	2.d	2f	.
.	.	.	8bL
.	.	.	8aJ
2G	.	2g	2b
.	4c	.	.
=20	=20	=20	=20
1A	2A	1e	2cc
.	2c	.	2.a
1E	1B	2r	.
.	.	.	8g#iL
.	.	.	8f#iJ
.	.	2e	2g#i
=21	=21	=21	=21
1AA	0A	2e	1a
.	.	2e	.
1r	.	2f	2r
.	.	4e	2a
.	.	4d	.
=22	=22	=22	=22
0r	0r	2c	2a
.	.	2d	2a
.	.	2.A	2.cc
.	.	4B	8bL
.	.	.	8aJ
=23	=23	=23	=23
0r	2r	1c	2g
.	2A	.	2a
.	2A	1c	[1e
.	2A	.	.
=24	=24	=24	=24
0r	2.c	2r	1e]
.	.	2e	.
.	8BL	.	.
.	8AJ	.	.
.	2G	2e	1r
.	2A	2e	.
=25	=25	=25	=25
2r	1E	1.g	0r
2E	.	.	.
2E	1r	.	.
2E	.	4f	.
.	.	4e	.
=26	=26	=26	=26
2G	1r	2.d	0r
4F	.	.	.
4E	.	4e	.
2D	2r	2f	.
2C	2A	[2e	.
=27	=27	=27	=27
1F	2A	4e]	0r
.	.	8dL	.
.	.	8cJ	.
.	2B	2d	.
1E	1c	[1e	.
=28	=28	=28	=28
2r	2B	1e]	2r
2E	2G	.	2g
2E	1c	1r	2g
2F	.	.	2a
=29	=29	=29	=29
2G	1B	2r	2b
2E	.	2e	2g
1A	[1A	2e	1cc
.	.	2f	.
=30	=30	=30	=30
2G	2A]	2g	2b
1F	2A	2c	1a
.	2A	2c	.
4E	2B	2d	4g
4D	.	.	4f
=31	=31	=31	=31
1C	1c	2.e	1e
.	.	4f	.
2r	2B	[1g	2r
2C	2G	.	2e
=32	=32	=32	=32
2C	2c	2g]	2e
2D	4B	2f	2f
.	4A	.	.
2E	1G	2.e	2g
2C	.	.	2e
.	.	4d	.
=33	=33	=33	=33
1F	2.A	1c	1a
.	4B	.	.
2E	2c	1r	2g
[2D	2d	.	[2f
=34	=34	=34	=34
2D]	1D	1d	2f]
4C	.	.	4e
4BB	.	.	4d
1AA	[1A	2c	[1e
.	.	2A	.
=35	=35	=35	=35
2r	1A]	1c	1e]
2A	.	.	.
2G	2r	1e	1r
2E	2c	.	.
=36	=36	=36	=36
1G	2B	2d	1r
.	2G	4c	.
.	.	4B	.
1A	[1c	4A	2r
.	.	4B	.
.	.	4c	2a
.	.	4d	.
=37	=37	=37	=37
1E	1c]	1e	2g
.	.	.	2e
1r	1B	2r	1g
.	.	2d	.
=38	=38	=38	=38
1r	0A	2c	1a
.	.	2A	.
2r	.	1c	[1e
2A	.	.	.
=39	=39	=39	=39
2G	2r	1e	1e]
2E	2c	.	.
1G	2B	2d	1r
.	2G	4c	.
.	.	4B	.
=40	=40	=40	=40
1A	0c	4A	2r
.	.	4B	.
.	.	4c	2a
.	.	4d	.
[1E	.	[1e	2g
.	.	.	2e
=41	=41	=41	=41
1E]	1B	0e]	1g
2r	2A	.	1a
2AA	[2c	.	.
=42	=42	=42	=42
2AA	2c]	2r	[0e
2AA	4B	2E	.
.	4A	.	.
2.C	1G	2E	.
.	.	2E	.
4D	.	.	.
=43	=43	=43	=43
1.E	0r	2.G	0e]
.	.	4A	.
.	.	2B	.
4AA	.	[2c	.
4BB	.	.	.
=44	=44	=44	=44
4C	0r	4c]	0r
4D	.	4B	.
4E	.	4G	.
4F	.	4A	.
2G	.	4B	.
.	.	4c	.
[2F	.	[2d	.
=45	=45	=45	=45
4F]	0r	4d]	0r
4E	.	4c	.
2C	.	1c	.
1D	.	.	.
.	.	2B	.
=46	=46	=46	=46
0C	2r	1c	0r
.	2G	.	.
.	2G	2r	.
.	2A	2c	.
=47	=47	=47	=47
0r	2B	2d	2r
.	2G	2d	2g
.	2c	2e	2g
.	4B	2c	2a
.	4A	.	.
=48	=48	=48	=48
2r	2G	2d	2b
2C	2G	2e	2g
2C	1A	1c	2cc
2D	.	.	4b
.	.	.	4a
=49	=49	=49	=49
2E	1r	2r	2g
2C	.	2c	1a
2F	2r	2d	.
4E	2A	2d	4g
4D	.	.	4f
=50	=50	=50	=50
2C	4c	2e	2a
.	4B	.	.
2E	4A	2c	1g
.	4G	.	.
1D	1A	2d	.
.	.	2d	2f#i
=51	=51	=51	=51
1GG	[0G	1B	1g
1r	.	1r	1r
=52	=52	=52	=52
0C	0G]	0c	0e
=53	=53	=53	=53
1D	1r	1.A	1f
1D	1F	.	1f
.	.	2B	.
=54	=54	=54	=54
1C	1G	1c	1e
1r	1A	1r	1r
=55	=55	=55	=55
1.C	1G	1.c	1.e
.	1r	.	.
2C	.	2c	2e
=56	=56	=56	=56
1C	1.G	1c	1e
1C	.	1c	1e
.	2G	.	.
=57	=57	=57	=57
0GG	1G	0B	0d
.	1G	.	.
=58	=58	=58	=58
2r	0E	2r	2r
2C	.	2c	2e
2C	.	2c	2e
2C	.	2c	2e
=59	=59	=59	=59
2D	1r	2A	2.f
2E	.	2G	.
.	.	.	4g
[1F	2r	[1c	[1a
.	2A	.	.
=60	=60	=60	=60
2F]	2A	2c]	2a]
2F	2A	2d	2g
[1E	2B	[1e	[1g
.	2G	.	.
=61	=61	=61	=61
1E]	1.c	1e]	1g]
2r	.	2r	2r
2E	2B	2G	2g
=62	=62	=62	=62
1E	1B	2.B	1g
.	.	4c	.
2D	2r	2d	2f
2C	2A	[2e	2e
=63	=63	=63	=63
2F	1A	2e]	2a
2F	.	2d	2a
[1E	2B	[1e	1g
.	2G	.	.
=64	=64	=64	=64
1E]	2c	1e]	2r
.	2c	.	2e
2r	[1B	1r	1g
2E	.	.	.
=65	=65	=65	=65
1G	1B]	2r	1g
.	.	2B	.
1G	2r	2d	1d
.	2B	2d	.
=66	=66	=66	=66
2D	2d	2d	1f
2D	2d	2.A	.
1F	2A	.	1a
.	.	4B	.
.	2A	4c	.
.	.	4d	.
=67	=67	=67	=67
0E	1c	0e	1g
.	[1B	.	2r
.	.	.	2e
=68	=68	=68	=68
2r	1B]	1r	1g
2E	.	.	.
1G	1r	2r	1g
.	.	2B	.
=69	=69	=69	=69
1G	2r	2d	1d
.	2B	2d	.
2D	2d	2d	1f
2D	2d	2A	.
=70	=70	=70	=70
1F	2A	4A	1.a
.	.	4B	.
.	2A	4c	.
.	.	4d	.
[1El	1c	[1e	.
.	.	.	4g
.	.	.	4f
=71	=71	=71	=71
0E_	[0Bl	1e]	2g
.	.	.	2a
.	.	[1el	[1gl
=72	=72	=72	=72
00E]	00B]	00e]	00g]
=73||	=73||	=73||	=73||
*M2/1	*M2/1	*M2/1	*M2/1
*met(C|)	*met(C|)	*met(C|)	*met(C|)
!!section: Secunda pars: Propter hoc relinquit homo
!!!OMD: Secunda pars: Propter hoc relinquit homo
0r	0r	1.e	0r
.	.	2e	.
=74	=74	=74	=74
0r	0r	2d	0r
.	.	2B	.
.	.	2d	.
.	.	2d	.
=75	=75	=75	=75
1.A	1r	0c	0r
.	[1e	.	.
2A	.	.	.
=76	=76	=76	=76
2G	2e]	0B	0r
2E	2e	.	.
2G	2d	.	.
2G	2B	.	.
=77	=77	=77	=77
0F	2d	2r	1a
.	2d	2A	.
.	[1c	2.c	2a
.	.	.	2a
.	.	4d	.
=78	=78	=78	=78
0E	1c]	0e	2g
.	.	.	2e
.	1B	.	2g
.	.	.	2g
=79	=79	=79	=79
2r	1r	1A	0f
2D	.	.	.
2.F	2r	1r	.
.	2A	.	.
4G	.	.	.
=80	=80	=80	=80
1A	2.c	0r	1e
.	4d	.	.
2.E	1e	.	1r
4F	.	.	.
=81	=81	=81	=81
2G	2.B	1r	2r
4F	.	.	2c
4E	4c	.	.
1D	2d	2r	2.f
.	4c	2A	.
.	4B	.	4g
=82	=82	=82	=82
2r	1A	2.c	1a
2AA	.	.	.
.	.	4d	.
2.C	2r	2e	[1e
.	2E	4d	.
4D	.	4c	.
=83	=83	=83	=83
0E	2G	4B	0e]
.	.	4c	.
.	2A	1A	.
.	1B	.	.
.	.	2G#i	.
=84	=84	=84	=84
0AA	0c	1A	2r
.	.	.	2e
.	.	2A	2e
.	.	2A	2f
=85	=85	=85	=85
0r	2r	2B	2g
.	2A	2c	2e
.	2A	2A	1a
.	2B	2d	.
=86	=86	=86	=86
0r	2c	2e	2g
.	2A	2c	1a
.	1d	1f	.
.	.	.	2b
=87	=87	=87	=87
1r	2.c	1e	2cc
.	.	.	4b
.	4d	.	4a
2r	2.e	1r	2g
2E	.	.	[2b
.	4d	.	.
=88	=88	=88	=88
2E	2c	1r	4b]
.	.	.	4a
2F	4B	.	1a
.	4A	.	.
2G	1B	2r	.
2E	.	2e	2g#i
=89	=89	=89	=89
1A	1A	2e	1a
.	.	2f	.
2G	1r	2g	1r
[2A	.	2e	.
=90	=90	=90	=90
2A]	1r	1f	1r
2B	.	.	.
2c	2r	2e	2r
2C	2G	2c	2e
=91	=91	=91	=91
2C	2A	2e	2e
2D	2A	2d	2f
2E	2G	2r	2g
2C	[2c	2c	2e
=92	=92	=92	=92
1F	2c]	2c	1a
.	2A	2d	.
2E	1c	2e	2g
[2F	.	2c	[2a
=93	=93	=93	=93
2F]	1d	1f	2a]
2G	.	.	2b
1A	2c	2e	[1cc
.	4B	2f	.
.	4A	.	.
=94	=94	=94	=94
1E	1G	1g	2cc]
.	.	.	4b
.	.	.	4a
2r	1r	1e	1g
[2E	.	.	.
=95	=95	=95	=95
2E]	1c	0r	0r
2F	.	.	.
2E	2c	.	.
2D	2B	.	.
=96	=96	=96	=96
2.F	2A	0r	0r
.	1c	.	.
8EL	.	.	.
8DJ	.	.	.
[1C	.	.	.
.	4B	.	.
.	4A	.	.
=97	=97	=97	=97
1C]	1G	2r	1r
.	.	1e	.
1r	1r	.	1cc
.	.	2f	.
=98	=98	=98	=98
1r	0r	2e	2cc
.	.	2d	2b
2r	.	2.f	2a
[2F	.	.	[2cc
.	.	8eL	.
.	.	8dJ	.
=99	=99	=99	=99
2F]	1c	1c	2cc]
2F	.	.	4b
.	.	.	4a
2.E	2c	1r	1g
.	2B	.	.
4D	.	.	.
=100	=100	=100	=100
2.F	2A	0r	0r
.	1c	.	.
8EL	.	.	.
8DJ	.	.	.
2C	.	.	.
[2E	4B	.	.
.	4A	.	.
=101	=101	=101	=101
2E]	2G	0r	0r
2C	2A	.	.
2D	2F	.	.
2E	2G	.	.
=102	=102	=102	=102
0AA	1A	2r	1r
.	.	1e	.
.	1E	.	1cc
.	.	2f	.
=103	=103	=103	=103
0r	0r	2e	2cc
.	.	2d	2b
.	.	2.f	2a
.	.	.	[2cc
.	.	8eL	.
.	.	8dJ	.
=104	=104	=104	=104
0r	0r	2c	2cc]
.	.	1e	4b
.	.	.	4a
.	.	.	2g
.	.	2c	2a
=105	=105	=105	=105
1r	0r	2d	2f
.	.	2e	2g
2r	.	1A	1a
2A	.	.	.
=106	=106	=106	=106
2A	1r	0r	[0e
2G	.	.	.
2c	2r	.	.
4B	2A	.	.
4A	.	.	.
=107	=107	=107	=107
2c	2A	0r	0e]
2B	2G	.	.
2A	2c	.	.
4G	4B	.	.
4F	4A	.	.
=108	=108	=108	=108
2E	2c	2r	0r
2G	2B	2e	.
1F	1A	2e	.
.	.	2d	.
=109	=109	=109	=109
2r	1c	2g	0r
2E	.	4f	.
.	.	4e	.
2E	1B	2g	.
2D	.	2f	.
=110	=110	=110	=110
2E	0r	2.e	2r
2C	.	.	2a
.	.	8dL	.
.	.	8cJ	.
2D	.	1B	2a
2E	.	.	2g
=111	=111	=111	=111
1AA	2r	1A	2cc
.	2A	.	4b
.	.	.	4a
1r	2A	1r	2cc
.	2G	.	2b
=112	=112	=112	=112
0r	2c	0r	2a
.	4B	.	4g
.	4A	.	4f
.	2c	.	2e
.	2B	.	2g
=113	=113	=113	=113
0r	2A	2r	2f
.	2G	2B	2e
.	1F	2c	1a
.	.	2d	.
=114	=114	=114	=114
2r	1E	2e	1g
2E	.	2B	.
2F	1r	2r	1r
2G	.	2B	.
=115	=115	=115	=115
1A	2r	2c	1r
.	2A	2d	.
1E	2B	2e	2r
.	2c	4d	2e
.	.	4c	.
=116	=116	=116	=116
2r	2d	2B	2f
2E	2.c	2G	2g
2F	.	2r	1a
.	4A	.	.
2G	2d	2B	.
=117	=117	=117	=117
1A	2r	2c	1e
.	2A	2d	.
1E	2B	2e	2r
.	2c	4d	2e
.	.	4c	.
=118	=118	=118	=118
2r	2d	2B	2f
2E	2.c	2G	2g
2F	.	2r	2a
.	4A	.	.
2G	2d	2B	4g
.	.	.	4f
=119	=119	=119	=119
1A	2A	2c	2e
.	2c	2d	1a
1E	1B	1e	.
.	.	.	2g#i
=120	=120	=120	=120
*M3/1	*M3/1	*M3/1	*M3/1
*met(3)	*met(3)	*met(3)	*met(3)
0AA	0A	0c	0a
1r	1r	1r	1r
=121	=121	=121	=121
1E	1B	1e	1g
1E	1B	1e	1g
1E	1B	1e	1g
=122	=122	=122	=122
0D	0d	0f	0a
1G	1B	1d	1g
=123	=123	=123	=123
1C	1G	1.e	1.cc
0F	0A	.	.
.	.	4d	2b
.	.	4c	.
.	.	1d	1a
=124	=124	=124	=124
0E	0B	0e	0g
1r	1r	1r	1r
=125	=125	=125	=125
1E	1B	1e	1g
1E	1B	1e	1g
1E	1B	1e	1g
=126	=126	=126	=126
0D	0d	0f	0a
1G	1B	1d	1g
=127	=127	=127	=127
1C	1G	1.e	1.cc
0F	0A	.	.
.	.	4d	2b
.	.	4c	.
.	.	1d	1a
=128	=128	=128	=128
*M2/1	*M2/1	*M2/1	*M2/1
*met(C|)	*met(C|)	*met(C|)	*met(C|)
0E	[0B	1e	0g
.	.	2r	.
.	.	2e	.
=129	=129	=129	=129
2r	1B]	2e	0r
2E	.	2e	.
2E	2r	2g	.
2E	2B	4f	.
.	.	4e	.
=130	=130	=130	=130
2G	2B	2.d	0r
4F	2B	.	.
4E	.	4e	.
2.D	2d	2f	.
.	4c	4e	.
4E	4B	4d	.
=131	=131	=131	=131
2.F	2A	2c	0r
.	2G	4d	.
4E	.	4c	.
2D	2F	4B	.
.	.	4A	.
2C	[2E	[2A	.
=132	=132	=132	=132
1BB	2E]	2A]	1r
.	2D	2G#i	.
1AA	1E	[1A	2r
.	.	.	2a
=133	=133	=133	=133
2r	0r	1A]	2a
2A	.	.	2a
2A	.	1r	2.cc
2A	.	.	.
.	.	.	4b
=134	=134	=134	=134
2.c	1r	0r	2a
.	.	.	2g
4B	.	.	.
2A	2r	.	2f
2G	2A	.	[2e
=135	=135	=135	=135
1F	2A	0r	2e]
.	2A	.	2d
1E	2c	.	[1e
.	4B	.	.
.	4A	.	.
=136	=136	=136	=136
2r	2G	2r	1e]
2E	2c	2e	.
2E	1B	2e	1r
2E	.	2e	.
=137	=137	=137	=137
2.F	2.A	2.d	0r
4E	4G	4c	.
2D	2F	2B	.
2C	[2E	[2A	.
=138	=138	=138	=138
1BB	2E]	2A]	1r
.	2D	2G#i	.
[1AAl	1E	[1A	2r
.	.	.	2a
=139	=139	=139	=139
0AA_	2r	1A]	2a
.	2A	.	2a
.	2A	2r	2.cc
.	2A	2A	.
.	.	.	4b
=140	=140	=140	=140
0AA_	1.c	2A	2.a
.	.	2A	.
.	.	.	4g
.	.	[1c	1f
.	2A	.	.
=141	=141	=141	=141
0AA_	[0Al	2c]	[0el
.	.	2A	.
.	.	[1cl	.
=142	=142	=142	=142
00AA]	00A]	00c]	00e]
==	==	==	==
*-	*-	*-	*-
!!!system-decoration: [*]
!!!RDF**kern: i = editorial accidental
!!!RDF**kern: l = terminal long
!!!ENC: Benjamin Ory
!!!END: 2024/4/3
!!!EED: Benjamin Ory
!!!EEV: 2024/04/03
!!!YEC: Copyright 2024 Benjamin Ory, All Rights Reserved
!!!ONB: Translated from MusicXML on 2024/04/03
